!! 00000] TT[WS
!!!OTL: Tingjian gege chang yisheng
!!!ARE: Asia, China, Shanxi Hequ
!! Ethnic Group: Han
!! WII, 24 (2)
!!!SCT: J0431
!!!YEM: Copyright 1995, estate of Helmut Schaffrath.
**kern
*ICvox
*Ivox
*M2/4
*k[f#]
*G:
{8b
8g
[4a
=1
8a]
16b
16b
8ee
16dd
16b
=2
8a
8e
8g
16b
16dd
=3
2g}
=4
{8b
8g
[4a
=5
8a]
16b
16b
8ee
16dd
16b
=6
8a
8e
8g
16b
16dd
=7
8g
16g
16e
4d}
==
!!!AGN: Shange, Shanqu. Qingge
!!!ONB: ESAC (Essen Associative Code) Database: CHINA
!!!AMT: simple duple
!!!AIN: vox
!!!EED: Helmut Schaffrath
!!!EEV: 1.0
*-
!!!ONB: Tied note syntax fixed by Craig Sapp, 2004/05/03/
